static/img/mobile/switches-dark.svg

<svg fill="none" height="260" viewBox="0 0 961 260" width="961" xmlns="http://www.w3.org/2000/svg"><path d="m0 0h961v260h-961z" fill="#252a2e"/><path d="m428.319 114v-9.994h1.162v8.941h4.41v1.053zm11.96 0-.225-1.066h-.055c-.374.469-.747.788-1.121.957-.369.164-.832.246-1.388.246-.743 0-1.326-.192-1.75-.575-.419-.382-.629-.927-.629-1.633 0-1.513 1.21-2.306 3.63-2.379l1.272-.041v-.465c0-.588-.128-1.021-.383-1.299-.251-.282-.654-.424-1.21-.424-.624 0-1.331.192-2.119.575l-.349-.869c.369-.2.773-.357 1.21-.471.442-.114.884-.171 1.326-.171.894 0 1.554.198 1.983.594.433.397.649 1.033.649 1.908v5.113zm-2.563-.8c.706 0 1.26-.193 1.661-.581.406-.387.608-.93.608-1.627v-.677l-1.134.048c-.903.032-1.554.173-1.955.424-.397.246-.595.631-.595 1.155 0 .411.123.723.369.937.251.214.599.321 1.046.321zm9.485-6.815c.985 0 1.748.337 2.29 1.011.547.67.821 1.621.821 2.851 0 1.231-.276 2.188-.828 2.871-.546.679-1.308 1.019-2.283 1.019-.487 0-.934-.089-1.34-.267-.401-.182-.738-.46-1.011-.834h-.082l-.24.964h-.813v-10.637h1.135v2.584c0 .579-.019 1.099-.055 1.559h.055c.528-.748 1.312-1.121 2.351-1.121zm-.164.95c-.775 0-1.333.223-1.675.67-.341.442-.512 1.189-.512 2.242s.175 1.807.526 2.263c.351.451.914.677 1.688.677.698 0 1.217-.253 1.559-.759.342-.511.513-1.242.513-2.195 0-.975-.171-1.702-.513-2.18-.342-.479-.87-.718-1.586-.718zm8.679 6.802c-1.108 0-1.983-.338-2.625-1.012-.638-.674-.957-1.611-.957-2.81 0-1.207.296-2.167.888-2.877.597-.711 1.397-1.067 2.4-1.067.939 0 1.682.31 2.228.93.547.615.821 1.428.821 2.44v.718h-5.161c.022.88.243 1.547.663 2.003.423.456 1.018.684 1.784.684.806 0 1.604-.169 2.392-.506v1.011c-.401.174-.781.297-1.141.37-.356.077-.786.116-1.292.116zm-.308-6.816c-.601 0-1.082.196-1.442.588-.356.392-.565.934-.629 1.627h3.917c0-.715-.16-1.262-.479-1.64-.319-.383-.774-.575-1.367-.575zm6.389 6.679h-1.135v-10.637h1.135z" fill="#fff"/><rect fill="#90939f" height="32" rx="16" transform="matrix(1 0 0 -1 471 125)" width="64"/><path d="m496.333 109c0 5.155-4.179 9.333-9.334 9.333-5.154 0-9.333-4.178-9.333-9.333s4.179-9.3334 9.333-9.3334c5.155 0 9.334 4.1784 9.334 9.3334z" fill="#fff"/><rect fill="#019aeb" height="32" rx="16" transform="matrix(1 0 0 -1 425.5 175)" width="64"/><g fill="#fff"><path d="m486.718 159.014c.123 7.179-5.597 13.093-12.776 13.21s-13.098-5.608-13.22-12.786c-.123-7.179 5.598-13.093 12.776-13.21 7.179-.117 13.098 5.608 13.22 12.786z"/><path d="m499.819 164v-9.994h1.162v8.941h4.41v1.053zm11.96 0-.225-1.066h-.055c-.374.469-.747.788-1.121.957-.369.164-.832.246-1.388.246-.743 0-1.326-.192-1.75-.575-.419-.382-.629-.927-.629-1.633 0-1.513 1.21-2.306 3.63-2.379l1.272-.041v-.465c0-.588-.128-1.021-.383-1.299-.251-.282-.654-.424-1.21-.424-.624 0-1.331.192-2.119.575l-.349-.869c.369-.2.773-.357 1.21-.471.442-.114.884-.171 1.326-.171.894 0 1.554.198 1.983.594.433.397.649 1.033.649 1.908v5.113zm-2.563-.8c.706 0 1.26-.193 1.661-.581.406-.387.608-.93.608-1.627v-.677l-1.134.048c-.903.032-1.554.173-1.955.424-.397.246-.595.631-.595 1.155 0 .411.123.723.369.937.251.214.599.321 1.046.321zm9.485-6.815c.985 0 1.748.337 2.29 1.011.547.67.821 1.621.821 2.851 0 1.231-.276 2.188-.828 2.871-.546.679-1.308 1.019-2.283 1.019-.487 0-.934-.089-1.34-.267-.401-.182-.738-.46-1.011-.834h-.082l-.24.964h-.813v-10.637h1.135v2.584c0 .579-.019 1.099-.055 1.559h.055c.528-.748 1.312-1.121 2.351-1.121zm-.164.95c-.775 0-1.333.223-1.675.67-.341.442-.512 1.189-.512 2.242s.175 1.807.526 2.263c.351.451.914.677 1.688.677.698 0 1.217-.253 1.559-.759.342-.511.513-1.242.513-2.195 0-.975-.171-1.702-.513-2.18-.342-.479-.87-.718-1.586-.718zm8.679 6.802c-1.108 0-1.983-.338-2.625-1.012-.638-.674-.957-1.611-.957-2.81 0-1.207.296-2.167.888-2.877.597-.711 1.397-1.067 2.4-1.067.939 0 1.682.31 2.228.93.547.615.821 1.428.821 2.44v.718h-5.161c.022.88.243 1.547.663 2.003.423.456 1.018.684 1.784.684.806 0 1.604-.169 2.392-.506v1.011c-.401.174-.781.297-1.141.37-.356.077-.786.116-1.292.116zm-.308-6.816c-.601 0-1.082.196-1.442.588-.356.392-.565.934-.629 1.627h3.917c0-.715-.16-1.262-.479-1.64-.319-.383-.774-.575-1.367-.575zm6.389 6.679h-1.135v-10.637h1.135z"/></g></svg>

<svg width="961" height="260" viewBox="0 0 961 260" fill="none" xmlns="http://www.w3.org/2000/svg">
<rect width="961" height="260" fill="#252A2E"/>
<path d="M428.319 114V104.006H429.481V112.947H433.891V114H428.319ZM440.279 114L440.054 112.934H439.999C439.625 113.403 439.252 113.722 438.878 113.891C438.509 114.055 438.046 114.137 437.49 114.137C436.747 114.137 436.164 113.945 435.74 113.562C435.321 113.18 435.111 112.635 435.111 111.929C435.111 110.416 436.321 109.623 438.741 109.55L440.013 109.509V109.044C440.013 108.456 439.885 108.023 439.63 107.745C439.379 107.463 438.976 107.321 438.42 107.321C437.796 107.321 437.089 107.513 436.301 107.896L435.952 107.027C436.321 106.827 436.725 106.67 437.162 106.556C437.604 106.442 438.046 106.385 438.488 106.385C439.382 106.385 440.042 106.583 440.471 106.979C440.904 107.376 441.12 108.012 441.12 108.887V114H440.279ZM437.716 113.2C438.422 113.2 438.976 113.007 439.377 112.619C439.783 112.232 439.985 111.689 439.985 110.992V110.315L438.851 110.363C437.948 110.395 437.297 110.536 436.896 110.787C436.499 111.033 436.301 111.418 436.301 111.942C436.301 112.353 436.424 112.665 436.67 112.879C436.921 113.093 437.269 113.2 437.716 113.2ZM447.201 106.385C448.186 106.385 448.949 106.722 449.491 107.396C450.038 108.066 450.312 109.017 450.312 110.247C450.312 111.478 450.036 112.435 449.484 113.118C448.938 113.797 448.176 114.137 447.201 114.137C446.714 114.137 446.267 114.048 445.861 113.87C445.46 113.688 445.123 113.41 444.85 113.036H444.768L444.528 114H443.715V103.363H444.85V105.947C444.85 106.526 444.831 107.046 444.795 107.506H444.85C445.378 106.758 446.162 106.385 447.201 106.385ZM447.037 107.335C446.262 107.335 445.704 107.558 445.362 108.005C445.021 108.447 444.85 109.194 444.85 110.247C444.85 111.3 445.025 112.054 445.376 112.51C445.727 112.961 446.29 113.187 447.064 113.187C447.762 113.187 448.281 112.934 448.623 112.428C448.965 111.917 449.136 111.186 449.136 110.233C449.136 109.258 448.965 108.531 448.623 108.053C448.281 107.574 447.753 107.335 447.037 107.335ZM455.716 114.137C454.608 114.137 453.733 113.799 453.091 113.125C452.453 112.451 452.134 111.514 452.134 110.315C452.134 109.108 452.43 108.148 453.022 107.438C453.619 106.727 454.419 106.371 455.422 106.371C456.361 106.371 457.104 106.681 457.65 107.301C458.197 107.916 458.471 108.729 458.471 109.741V110.459H453.31C453.332 111.339 453.553 112.006 453.973 112.462C454.396 112.918 454.991 113.146 455.757 113.146C456.563 113.146 457.361 112.977 458.149 112.64V113.651C457.748 113.825 457.368 113.948 457.008 114.021C456.652 114.098 456.222 114.137 455.716 114.137ZM455.408 107.321C454.807 107.321 454.326 107.517 453.966 107.909C453.61 108.301 453.401 108.843 453.337 109.536H457.254C457.254 108.821 457.094 108.274 456.775 107.896C456.456 107.513 456.001 107.321 455.408 107.321ZM461.797 114H460.662V103.363H461.797V114Z" fill="white"/>
<rect width="64" height="32" rx="16" transform="matrix(1 0 0 -1 471 125)" fill="#90939F"/>
<path d="M496.333 109C496.333 114.155 492.154 118.333 486.999 118.333C481.845 118.333 477.666 114.155 477.666 109C477.666 103.845 481.845 99.6666 486.999 99.6666C492.154 99.6666 496.333 103.845 496.333 109Z" fill="white"/>
<rect width="64" height="32" rx="16" transform="matrix(1 0 0 -1 425.5 175)" fill="#019AEB"/>
<path d="M486.718 159.014C486.841 166.193 481.121 172.107 473.942 172.224C466.763 172.341 460.844 166.616 460.722 159.438C460.599 152.259 466.32 146.345 473.498 146.228C480.677 146.111 486.596 151.836 486.718 159.014Z" fill="white"/>
<path d="M499.819 164V154.006H500.981V162.947H505.391V164H499.819ZM511.779 164L511.554 162.934H511.499C511.125 163.403 510.752 163.722 510.378 163.891C510.009 164.055 509.546 164.137 508.99 164.137C508.247 164.137 507.664 163.945 507.24 163.562C506.821 163.18 506.611 162.635 506.611 161.929C506.611 160.416 507.821 159.623 510.241 159.55L511.513 159.509V159.044C511.513 158.456 511.385 158.023 511.13 157.745C510.879 157.463 510.476 157.321 509.92 157.321C509.296 157.321 508.589 157.513 507.801 157.896L507.452 157.027C507.821 156.827 508.225 156.67 508.662 156.556C509.104 156.442 509.546 156.385 509.988 156.385C510.882 156.385 511.542 156.583 511.971 156.979C512.404 157.376 512.62 158.012 512.62 158.887V164H511.779ZM509.216 163.2C509.922 163.2 510.476 163.007 510.877 162.619C511.283 162.232 511.485 161.689 511.485 160.992V160.315L510.351 160.363C509.448 160.395 508.797 160.536 508.396 160.787C507.999 161.033 507.801 161.418 507.801 161.942C507.801 162.353 507.924 162.665 508.17 162.879C508.421 163.093 508.769 163.2 509.216 163.2ZM518.701 156.385C519.686 156.385 520.449 156.722 520.991 157.396C521.538 158.066 521.812 159.017 521.812 160.247C521.812 161.478 521.536 162.435 520.984 163.118C520.438 163.797 519.676 164.137 518.701 164.137C518.214 164.137 517.767 164.048 517.361 163.87C516.96 163.688 516.623 163.41 516.35 163.036H516.268L516.028 164H515.215V153.363H516.35V155.947C516.35 156.526 516.331 157.046 516.295 157.506H516.35C516.878 156.758 517.662 156.385 518.701 156.385ZM518.537 157.335C517.762 157.335 517.204 157.558 516.862 158.005C516.521 158.447 516.35 159.194 516.35 160.247C516.35 161.3 516.525 162.054 516.876 162.51C517.227 162.961 517.79 163.187 518.564 163.187C519.262 163.187 519.781 162.934 520.123 162.428C520.465 161.917 520.636 161.186 520.636 160.233C520.636 159.258 520.465 158.531 520.123 158.053C519.781 157.574 519.253 157.335 518.537 157.335ZM527.216 164.137C526.108 164.137 525.233 163.799 524.591 163.125C523.953 162.451 523.634 161.514 523.634 160.315C523.634 159.108 523.93 158.148 524.522 157.438C525.119 156.727 525.919 156.371 526.922 156.371C527.861 156.371 528.604 156.681 529.15 157.301C529.697 157.916 529.971 158.729 529.971 159.741V160.459H524.81C524.832 161.339 525.053 162.006 525.473 162.462C525.896 162.918 526.491 163.146 527.257 163.146C528.063 163.146 528.861 162.977 529.649 162.64V163.651C529.248 163.825 528.868 163.948 528.508 164.021C528.152 164.098 527.722 164.137 527.216 164.137ZM526.908 157.321C526.307 157.321 525.826 157.517 525.466 157.909C525.11 158.301 524.901 158.843 524.837 159.536H528.754C528.754 158.821 528.594 158.274 528.275 157.896C527.956 157.513 527.501 157.321 526.908 157.321ZM533.297 164H532.162V153.363H533.297V164Z" fill="white"/>
</svg>
